svg/UnitedNationsOCHA-Humanitarian/disaster_volcano_icon_box.svg

<svg xmlns="http://www.w3.org/2000/svg" viewBox="0 0 32 32" enable-background="new 0 0 32 32"><path fill="#407cca" d="m25.6 0h-19.2c-3.52 0-6.4 2.88-6.4 6.4v19.2c0 3.52 2.88 6.4 6.4 6.4h19.2c3.521 0 6.4-2.88 6.4-6.4v-19.2c0-3.52-2.88-6.4-6.4-6.4m-8.871 8.842c1.828.608 2.25-.244 2.74-1.372 1.033-2.348 2.211-3.484 4.8-3.428 2.558.057 4.094 3.881 2.058 4.114-1.125.128-3.764-.604-4.115 1.372-.445 2.547-2.536 1.911-4.111 1.372-1.614-.556-2.146.845-1.371 2.055.664 1.039.686 2.058.686 2.058h-2.758c0 0 1-1.788.016-3.428-1.113-1.851.226-3.352 2.055-2.743m-13.24 19.12c7.094-5.172 8.865-12.317 8.865-12.317h7.291c0 0 1.771 7.146 8.865 12.317h-25.02"/></svg>

<?xml version="1.0" encoding="utf-8"?>
<!-- Generator: Adobe Illustrator 16.0.3, SVG Export Plug-In . SVG Version: 6.00 Build 0)  -->
<!DOCTYPE svg PUBLIC "-//W3C//DTD SVG 1.1//EN" "http://www.w3.org/Graphics/SVG/1.1/DTD/svg11.dtd">
<svg version="1.1" id="Layer_1" xmlns="http://www.w3.org/2000/svg" xmlns:xlink="http://www.w3.org/1999/xlink" x="0px" y="0px"
	 width="32px" height="32px" viewBox="0 0 32 32" enable-background="new 0 0 32 32" xml:space="preserve">
<path fill="#407CCA" d="M25.6,0H6.4C2.88,0,0,2.88,0,6.4v19.2C0,29.12,2.88,32,6.4,32h19.2c3.521,0,6.4-2.88,6.4-6.4V6.4
	C32,2.88,29.12,0,25.6,0z M16.729,8.842c1.828,0.608,2.25-0.244,2.74-1.372c1.033-2.348,2.211-3.484,4.8-3.428
	c2.558,0.057,4.094,3.881,2.058,4.114c-1.125,0.128-3.764-0.604-4.115,1.372c-0.445,2.547-2.536,1.911-4.111,1.372
	c-1.614-0.556-2.146,0.845-1.371,2.055c0.664,1.039,0.686,2.058,0.686,2.058h-2.758c0,0,1-1.788,0.016-3.428
	C13.561,9.734,14.9,8.233,16.729,8.842z M3.489,27.958c7.094-5.172,8.865-12.317,8.865-12.317h7.291c0,0,1.771,7.146,8.865,12.317
	H3.489z"/>
</svg>
